X: 664
T: Etme Beyhûde Figan
C: Rahmi Bey
O: Turkey
F: http://compmusic.upf.edu/node/140
N: isfahan--sarki--curcuna--etme_beyhude--rahmi_bey
N: makam= isfahan
N: form= sarki
N: usul= curcuna = 10/8
M: 10/8
L: 1/16
K: C _2/4B   
Q: 1/4=180
%%MIDI tuningsystem comma53
A2=B2 ^c2d4c2 e2d4z2  | ^c2d2 ^e2^f4e2 g2f6  | \
w:  ARANAĞME  |   | 
^e2^f2 c'2_1/4b2 a2g2 ^3/4f2=e4d2  | 
w:   | 
c2B2 d2c2 B2B2 A2A4z2  | A2=B2 ^c2d4c2 e2d4z2  | \
w:   |  ARANAĞME  | 
^c2d2 ^e2^f4e2 g2f6  | 
w:   | 
^e2^f2 c'2_1/4b2 a2g2 ^3/4f2=e4d2  | \
w:   | 
c2B2 d2c2 B2B2 A2A4z2  | d6d4^c2 d2e4d2  | 
w:   |  Et me  bey  | 
d2g2 f2e2 d2c2 d2c4B2  | .c6d4d2 c2c4B2  | B16-B4  | \
w:  hû  |  de  fi gan   |  vaz  | 
.B6c4A8z2  | 
w:  geç  gö nül    | 
d2^c2 =B2c2 d2c2 d2e4d2  | e2^3/4f2 {a}g2e2 g2=f2 e2d4c2  | \
w:  vaz  |  geç  *  *  *  *  *  *  *  *  gö  | 
d4 {a}f2e2 d2c2 B2A4z2  | 
w:  nül   *  SAZ  | 
d6d4^c2 d2e4d2  | d2g2 f2e2 d2c2 d2c4B2  | \
w:  Et me  bey  |  hû  | 
.c6d4d2 c2c4B2  | 
w:  de  fi gan   | 
B16-B4  | .B6c4A8z2  | d2^c2 =B2c2 d2c2 d2e4d2  | \
w:  vaz  |  geç  gö nül    |  vaz  | 
e2^3/4f2 {a}g2e2 g2=f2 e2d4c2  | 
w:  geç  *  *  *  *  *  *  *  *  gö  | 
d4 f2e2 d2e2 c2d4z2  | a4 g2g2 f2e2 f2g2 f2e2  | \
w:  nül   SAZ  |  Gel  *  bu  *  sev  | 
f8-f2f2 e2e2 d2c2  | 
w:  dâ  | 
d6e2 f2e2 d2c4B2  | d2c2 {d}c2d4c2 BAB4A2  | \
w:  dan  he *  mân   |  vaz  | 
.G6A4A8z2  | (3g2a2g2 f2e2 d2f2 e2d2 c2B2  | 
w:  geç  gö nül    |  vaz  | 
c2d2 e2d2 c2c2 B2B4BA  | A4 f2e2 d2e2 c2d6  | \
w:  geç  *  *  *  *  *  *  *  gö  |  nül   SAZ  | 
a4 g2g2 f2e2 f2g2 f2e2  | 
w:  Gel  *  bu  *  sev  | 
f8-f2f2 e2e2 d2c2  | d6e2 f2e2 d2c4B2  | \
w:  dâ  |  dan  he *  mân   | 
d2c2 {d}c2d4c2 BAB4A2  | 
w:  vaz  | 
.G6A4A8z2  | (3g2a2g2 f2e2 d2f2 e2d2 c2B2  | \
w:  geç  gö nül    |  vaz  | 
c2d2 e2d2 c2c2 B2B4BA  | 
w:  geç  *  *  *  *  *  *  *  gö  | 
A4 e2d2 c2d2 B2{d}c6  | c6d4_7/8e2 d2{e}c2 g4  | \
w:  nül   SAZ  |  Ol ma sın   | 
^3/4f2a2 g2f2 _3/4e2e2 d2e2 d2c2  | 
w:  hâ  | 
_3/4e4 d2d2 c2B2 c2d2 {_7/8e}d2c2  | \
w:  lin  *  ya *  man   | 
c6c2 B2B2 A2A6  | A6a4a2 g2f2 e2d2  | 
w:  vaz  |  geç  gö nül    | 
e2f2 e2d2 c2B2 c2A6  | g4 f2e2 d2e2 f2.e4ed  | \
w:  vaz  |  geç  *  *  *  *  *  *  gö  | 
d4 f2e2 d2e2 c2d4z2  | 
w:  nül   SAZ  | 
a4 g2g2 f2e2 f2g2 f2e2  | f8-f2f2 e2e2 d2c2  | \
w:  Gel  *  bu  *  sev  |  dâ  | 
d6e2 f2e2 d2c4B2  | 
w:  dan  he *  mân   | 
d2c2 {d}c2d4c2 BAB4A2  | .G6A4A8z2  | \
w:  vaz  |  geç  gö nül    | 
(3g2a2g2 f2e2 d2f2 e2d2 c2B2  | 
w:  vaz  | 
c2d2 e2d2 c2c2 B2B4BA  | A4 f2e2 d2e2 c2d6  | \
w:  geç  *  *  *  *  *  *  *  gö  |  nül   SAZ  | 
a4 g2g2 f2e2 f2g2 f2e2  | 
w:  Gel  *  bu  *  sev  | 
f8-f2f2 e2e2 d2c2  | d6e2 f2e2 d2c4B2  | \
w:  dâ  |  dan  he *  mân   | 
d2c2 {d}c2d4c2 BAB4A2  | 
w:  vaz  | 
.G6A4A8z2  | (3g2a2g2 f2e2 d2f2 e2d2 c2B2  | \
w:  geç  gö nül    |  vaz  | 
c2d2 e2d2 c2c2 B2B4BA  | 
w:  geç  *  *  *  *  *  *  *  gö  | 
A4 f2e2 d2c2 B2A4z2  | |


